front/assets/images/illustration-filtre-besoins-former.svg

<svg width="56" height="56" viewBox="0 0 56 56" fill="none" xmlns="http://www.w3.org/2000/svg">
    <path fill-rule="evenodd" clip-rule="evenodd" d="M4.2 23.8023C4.585 23.8023 4.9 23.4873 4.9 23.1023C4.9 22.7173 4.585 22.4023 4.2 22.4023C3.815 22.4023 3.5 22.7173 3.5 23.1023C3.5 23.4873 3.815 23.8023 4.2 23.8023Z" fill="#FFF7DB"/>
    <path fill-rule="evenodd" clip-rule="evenodd" d="M32.2 4.20078C32.585 4.20078 32.9 3.88578 32.9 3.50078C32.9 3.11578 32.585 2.80078 32.2 2.80078C31.815 2.80078 31.5 3.11578 31.5 3.50078C31.5 3.88578 31.815 4.20078 32.2 4.20078Z" fill="#FFF7DB"/>
    <path fill-rule="evenodd" clip-rule="evenodd" d="M46.2 43.4C46.585 43.4 46.9 43.085 46.9 42.7C46.9 42.315 46.585 42 46.2 42C45.815 42 45.5 42.315 45.5 42.7C45.5 43.085 45.815 43.4 46.2 43.4Z" fill="#FFF7DB"/>
    <path fill-rule="evenodd" clip-rule="evenodd" d="M51.8001 21.0016C52.1851 21.0016 52.5001 20.6866 52.5001 20.3016C52.5001 19.9166 52.1851 19.6016 51.8001 19.6016C51.4151 19.6016 51.1001 19.9166 51.1001 20.3016C51.1001 20.6866 51.4151 21.0016 51.8001 21.0016Z" fill="#FFF7DB"/>
    <path fill-rule="evenodd" clip-rule="evenodd" d="M25.2 51.0992C25.585 51.0992 25.9 50.7842 25.9 50.3992C25.9 50.0142 25.585 49.6992 25.2 49.6992C24.815 49.6992 24.5 50.0142 24.5 50.3992C24.5 50.7842 24.815 51.0992 25.2 51.0992Z" fill="#FFF7DB"/>
    <path fill-rule="evenodd" clip-rule="evenodd" d="M28.0002 18.4044C23.8792 18.4044 20.5403 21.7433 20.5403 25.8643C20.5403 26.1357 20.5573 26.4167 20.5863 26.6893C20.5873 26.6985 20.5881 26.7077 20.5887 26.7168C21.0104 30.4315 24.1678 33.3243 28.0002 33.3243C32.1212 33.3243 35.4601 29.9854 35.4601 25.8643C35.4601 21.7433 32.1212 18.4044 28.0002 18.4044ZM19.1915 26.8123C19.1922 26.8236 19.1932 26.835 19.1944 26.8463C19.6826 31.2738 23.4374 34.7243 28.0002 34.7243C32.8944 34.7243 36.8601 30.7586 36.8601 25.8643C36.8601 20.9701 32.8944 17.0044 28.0002 17.0044C23.106 17.0044 19.1403 20.9701 19.1403 25.8643C19.1403 26.1836 19.1596 26.5056 19.1915 26.8123Z" fill="#FEC34B"/>
    <path fill-rule="evenodd" clip-rule="evenodd" d="M28.0002 34.7243C21.6314 34.7243 16.4635 39.8864 16.4635 46.261C16.4635 46.6476 16.1501 46.961 15.7635 46.961C15.3769 46.961 15.0635 46.6476 15.0635 46.261C15.0635 39.1128 20.8586 33.3243 28.0002 33.3243C35.142 33.3243 40.937 39.1192 40.937 46.261C40.937 46.6476 40.6236 46.961 40.237 46.961C39.8504 46.961 39.537 46.6476 39.537 46.261C39.537 39.8924 34.3688 34.7243 28.0002 34.7243Z" fill="#FEC34B"/>
    <path d="M40.1761 15.1789C40.9493 15.1789 41.5761 14.5521 41.5761 13.7789C41.5761 13.0057 40.9493 12.3789 40.1761 12.3789C39.4029 12.3789 38.7761 13.0057 38.7761 13.7789C38.7761 14.5521 39.4029 15.1789 40.1761 15.1789Z" fill="#FEC34B"/>
    <path fill-rule="evenodd" clip-rule="evenodd" d="M44.8314 24.0003C45.218 24.0035 45.5288 24.3194 45.5257 24.706L45.4758 30.8618C45.4726 31.2484 45.1567 31.5593 44.7701 31.5561C44.3835 31.553 44.0727 31.2371 44.0758 30.8505L44.1258 24.6946C44.1289 24.3081 44.4448 23.9972 44.8314 24.0003Z" fill="#0D0C21"/>
    <path fill-rule="evenodd" clip-rule="evenodd" d="M10.2044 8.60429C10.3368 8.47151 10.5168 8.39736 10.7043 8.39845L44.9422 8.59823C45.1281 8.59932 45.3059 8.67428 45.4364 8.80658C45.567 8.93889 45.6395 9.11768 45.6381 9.30354L45.5445 21.6215C45.5415 22.008 45.2258 22.3191 44.8392 22.3161C44.4526 22.3132 44.1416 21.9974 44.1445 21.6108L44.2328 9.99412L11.4067 9.80257L11.6 30.8497C11.6035 31.2363 11.293 31.5526 10.9064 31.5561C10.5198 31.5597 10.2036 31.2492 10.2 30.8626L10.0002 9.10486C9.99852 8.9174 10.0721 8.73708 10.2044 8.60429Z" fill="#0D0C21"/>
    <path fill-rule="evenodd" clip-rule="evenodd" d="M10.3984 30.3678C10.5302 30.2325 10.7111 30.1561 10.9 30.1561H17.0558C17.4424 30.1561 17.7558 30.4695 17.7558 30.8561C17.7558 31.2427 17.4424 31.5561 17.0558 31.5561H11.1954L6.55877 36.3182H13.3723C13.7589 36.3182 14.0723 36.6316 14.0723 37.0182C14.0723 37.4048 13.7589 37.7182 13.3723 37.7182H4.90021C4.61879 37.7182 4.36473 37.5497 4.2553 37.2904C4.14587 37.0311 4.20235 36.7315 4.39868 36.5299L10.3984 30.3678Z" fill="#0D0C21"/>
    <path d="M13.9966 37.0182C13.9966 37.363 13.7171 37.6426 13.3723 37.6426C13.0275 37.6426 12.748 37.363 12.748 37.0182C12.748 36.6734 13.0275 36.3939 13.3723 36.3939C13.7171 36.3939 13.9966 36.6734 13.9966 37.0182Z" fill="#0D0C21"/>
    <path d="M13.9966 37.0182C13.9966 37.363 13.7171 37.6426 13.3723 37.6426C13.0275 37.6426 12.748 37.363 12.748 37.0182C12.748 36.6734 13.0275 36.3939 13.3723 36.3939C13.7171 36.3939 13.9966 36.6734 13.9966 37.0182Z" fill="#0D0C21"/>
    <path d="M13.9966 37.0182C13.9966 37.363 13.7171 37.6426 13.3723 37.6426C13.0275 37.6426 12.748 37.363 12.748 37.0182C12.748 36.6734 13.0275 36.3939 13.3723 36.3939C13.7171 36.3939 13.9966 36.6734 13.9966 37.0182Z" fill="#0D0C21"/>
    <path d="M13.9966 37.0182C13.9966 37.363 13.7171 37.6426 13.3723 37.6426C13.0275 37.6426 12.748 37.363 12.748 37.0182C12.748 36.6734 13.0275 36.3939 13.3723 36.3939C13.7171 36.3939 13.9966 36.6734 13.9966 37.0182Z" fill="#0D0C21"/>
    <path d="M13.9966 37.0182C13.9966 37.363 13.7171 37.6426 13.3723 37.6426C13.0275 37.6426 12.748 37.363 12.748 37.0182C12.748 36.6734 13.0275 36.3939 13.3723 36.3939C13.7171 36.3939 13.9966 36.6734 13.9966 37.0182Z" fill="#0D0C21"/>
    <path fill-rule="evenodd" clip-rule="evenodd" d="M15.7502 37.0182C15.7502 36.6316 16.0636 36.3182 16.4502 36.3182H17.2181C17.6047 36.3182 17.9181 36.6316 17.9181 37.0182C17.9181 37.4048 17.6047 37.7182 17.2181 37.7182H16.4502C16.0636 37.7182 15.7502 37.4048 15.7502 37.0182Z" fill="#0D0C21"/>
    <path fill-rule="evenodd" clip-rule="evenodd" d="M37.92 30.8561C37.92 30.4695 38.2334 30.1561 38.62 30.1561H44.7758C44.9583 30.1561 45.1336 30.2274 45.2643 30.3548L51.5887 36.5168C51.7927 36.7156 51.8559 37.0181 51.7487 37.2819C51.6414 37.5457 51.385 37.7182 51.1002 37.7182H38.7823C38.3957 37.7182 38.0823 37.4048 38.0823 37.0182C38.0823 36.6316 38.3957 36.3182 38.7823 36.3182H49.3787L44.4912 31.5561H38.62C38.2334 31.5561 37.92 31.2427 37.92 30.8561Z" fill="#0D0C21"/>
    <path fill-rule="evenodd" clip-rule="evenodd" d="M13.4402 12.3761C13.4402 11.9895 13.7536 11.6761 14.1402 11.6761H32.6202C33.0068 11.6761 33.3202 11.9895 33.3202 12.3761C33.3202 12.7627 33.0068 13.0761 32.6202 13.0761H14.1402C13.7536 13.0761 13.4402 12.7627 13.4402 12.3761Z" fill="#0D0C21"/>
    <path fill-rule="evenodd" clip-rule="evenodd" d="M13.4402 15.4603C13.4402 15.0737 13.7536 14.7603 14.1402 14.7603H20.3023C20.6889 14.7603 21.0023 15.0737 21.0023 15.4603C21.0023 15.8469 20.6889 16.1603 20.3023 16.1603H14.1402C13.7536 16.1603 13.4402 15.8469 13.4402 15.4603Z" fill="#0D0C21"/>
    <path fill-rule="evenodd" clip-rule="evenodd" d="M13.4402 18.5382C13.4402 18.1516 13.7536 17.8382 14.1402 17.8382H17.2182C17.6047 17.8382 17.9181 18.1516 17.9181 18.5382C17.9181 18.9248 17.6047 19.2382 17.2182 19.2382H14.1402C13.7536 19.2382 13.4402 18.9248 13.4402 18.5382Z" fill="#0D0C21"/>
</svg>

<svg xmlns="http://www.w3.org/2000/svg" width="56" height="56" fill="none"><path fill="#FFF7DB" fill-rule="evenodd" d="M4.2 23.802c.385 0 .7-.315.7-.7s-.315-.7-.7-.7-.7.315-.7.7.315.7.7.7M32.2 4.2c.385 0 .7-.314.7-.7 0-.384-.315-.7-.7-.7s-.7.316-.7.7c0 .386.315.7.7.7m14 39.2c.385 0 .7-.315.7-.7s-.315-.7-.7-.7-.7.315-.7.7.315.7.7.7m5.6-22.398c.385 0 .7-.315.7-.7s-.315-.7-.7-.7-.7.315-.7.7.315.7.7.7M25.2 51.1c.385 0 .7-.316.7-.7 0-.386-.315-.7-.7-.7s-.7.314-.7.7c0 .384.315.7.7.7" clip-rule="evenodd"/><path fill="#FEC34B" fill-rule="evenodd" d="M28 18.404a7.46 7.46 0 0 0-7.411 8.313A7.463 7.463 0 0 0 28 33.324a7.46 7.46 0 0 0 7.46-7.46 7.46 7.46 0 0 0-7.46-7.46m-8.808 8.408.002.034c.489 4.428 4.243 7.878 8.806 7.878a8.86 8.86 0 0 0 8.86-8.86 8.86 8.86 0 0 0-8.86-8.86 8.86 8.86 0 0 0-8.808 9.808" clip-rule="evenodd"/><path fill="#FEC34B" fill-rule="evenodd" d="M28 34.724c-6.369 0-11.536 5.162-11.536 11.537a.7.7 0 1 1-1.4 0c0-7.148 5.795-12.937 12.936-12.937 7.142 0 12.937 5.795 12.937 12.937a.7.7 0 1 1-1.4 0c0-6.369-5.168-11.537-11.537-11.537" clip-rule="evenodd"/><path fill="#FEC34B" d="M40.176 15.179a1.4 1.4 0 1 0 0-2.8 1.4 1.4 0 0 0 0 2.8"/><path fill="#0D0C21" fill-rule="evenodd" d="M44.831 24a.7.7 0 0 1 .695.706l-.05 6.156a.7.7 0 0 1-1.4-.011l.05-6.156A.7.7 0 0 1 44.83 24M10.204 8.604a.7.7 0 0 1 .5-.206l34.238.2a.7.7 0 0 1 .696.706l-.093 12.318a.7.7 0 0 1-1.4-.011l.088-11.617-32.826-.191.193 21.047a.7.7 0 0 1-1.4.013L10 9.105a.7.7 0 0 1 .204-.5" clip-rule="evenodd"/><path fill="#0D0C21" fill-rule="evenodd" d="M10.398 30.368a.7.7 0 0 1 .502-.212h6.156a.7.7 0 1 1 0 1.4h-5.86l-4.637 4.762h6.813a.7.7 0 1 1 0 1.4H4.9a.7.7 0 0 1-.5-1.188z" clip-rule="evenodd"/><path fill="#0D0C21" d="M13.997 37.018a.624.624 0 1 1-1.25 0 .624.624 0 0 1 1.25 0"/><path fill="#0D0C21" d="M13.997 37.018a.624.624 0 1 1-1.25 0 .624.624 0 0 1 1.25 0"/><path fill="#0D0C21" d="M13.997 37.018a.624.624 0 1 1-1.25 0 .624.624 0 0 1 1.25 0"/><path fill="#0D0C21" d="M13.997 37.018a.624.624 0 1 1-1.25 0 .624.624 0 0 1 1.25 0"/><path fill="#0D0C21" d="M13.997 37.018a.624.624 0 1 1-1.25 0 .624.624 0 0 1 1.25 0"/><path fill="#0D0C21" fill-rule="evenodd" d="M15.75 37.018a.7.7 0 0 1 .7-.7h.768a.7.7 0 1 1 0 1.4h-.768a.7.7 0 0 1-.7-.7m22.17-6.162a.7.7 0 0 1 .7-.7h6.156a.7.7 0 0 1 .488.199l6.325 6.162a.7.7 0 0 1-.489 1.201H38.782a.7.7 0 1 1 0-1.4H49.38l-4.888-4.762H38.62a.7.7 0 0 1-.7-.7m-24.48-18.48a.7.7 0 0 1 .7-.7h18.48a.7.7 0 1 1 0 1.4H14.14a.7.7 0 0 1-.7-.7m0 3.084a.7.7 0 0 1 .7-.7h6.162a.7.7 0 1 1 0 1.4H14.14a.7.7 0 0 1-.7-.7m0 3.078a.7.7 0 0 1 .7-.7h3.078a.7.7 0 0 1 0 1.4H14.14a.7.7 0 0 1-.7-.7" clip-rule="evenodd"/></svg>
